assets/images/payment-method-icons/giropay.svg

<svg fill="none" height="40" viewBox="0 0 64 40" width="64" xmlns="http://www.w3.org/2000/svg"><path d="m0 4c0-2.20914 1.79086-4 4-4h56c2.2091 0 4 1.79086 4 4v32c0 2.2091-1.7909 4-4 4h-56c-2.20914 0-4-1.7909-4-4z" fill="#fff"/><path d="m12 11c0-2.20914 1.7909-4 4-4h32.8571c2.2092 0 4 1.79086 4 4v18c0 2.2091-1.7908 4-4 4h-32.8571c-2.2091 0-4-1.7909-4-4z" fill="#fff"/><path clip-rule="evenodd" d="m48.8571 9h-32.8571c-1.1046 0-2 .89543-2 2v18c0 1.1046.8954 2 2 2h32.8571c1.1046 0 2-.8954 2-2v-18c0-1.10457-.8954-2-2-2zm-32.8571-2c-2.2091 0-4 1.79086-4 4v18c0 2.2091 1.7909 4 4 4h32.8571c2.2092 0 4-1.7909 4-4v-18c0-2.20914-1.7908-4-4-4z" fill="#0f3365" fill-rule="evenodd"/><path d="m32.4285 7h16.4285c2.2092 0 4 1.79086 4 4v18c0 2.2091-1.7908 4-4 4h-16.4285z" fill="#0f3365"/><path clip-rule="evenodd" d="m35.2142 28.1058h4.2552v-5.9162h.0475c.8042 1.2963 2.4122 1.7764 3.9014 1.7764 3.6647 0 5.6269-2.6761 5.6269-5.8962 0-2.6337-1.8664-5.4983-5.2715-5.4983-1.9388 0-3.7364.69-4.5872 2.2163h-.0475v-1.9655h-3.9248zm9.4338-9.9519c0 1.7357-.9696 2.9269-2.5764 2.9269-1.4192 0-2.6025-1.1912-2.6025-2.7809 0-1.6303 1.0412-2.8432 2.6025-2.8432 1.6543 0 2.5764 1.2538 2.5764 2.6972z" fill="#fffffe" fill-rule="evenodd"/><path clip-rule="evenodd" d="m29.6351 12.8223h-3.8547v1.9648h-.0463c-.8988-1.3375-2.3651-2.2156-4.1851-2.2156-3.8298 0-5.5561 2.4247-5.5561 5.6657 0 3.2212 2.1043 5.4773 5.4856 5.4773 1.7022 0 3.1206-.5838 4.1365-1.8608h.0479v.5867c0 2.1326-1.3234 3.1567-3.7827 3.1567-1.7734 0-2.8609-.3342-4.161-.8987l-.2133 2.9692c.9934.3124 2.6722.6896 4.7052.6896 4.9651 0 7.424-1.4433 7.424-5.9168zm-9.2447 5.3519c0-1.484.8276-2.7175 2.4118-2.7175 1.9147 0 2.7188 1.3579 2.7188 2.5711 0 1.6734-1.2062 2.8022-2.7188 2.8022-1.2767 0-2.4118-.9628-2.4118-2.6558z" fill="#d8232a" fill-rule="evenodd"/><path d="m4 1h56v-2h-56zm59 3v32h2v-32zm-3 35h-56v2h56zm-59-3v-32h-2v32zm3 3c-1.65685 0-3-1.3431-3-3h-2c0 2.7614 2.23858 5 5 5zm59-3c0 1.6569-1.3431 3-3 3v2c2.7614 0 5-2.2386 5-5zm-3-35c1.6569 0 3 1.34315 3 3h2c0-2.76142-2.2386-5-5-5zm-56-2c-2.76142 0-5 2.23858-5 5h2c0-1.65685 1.34315-3 3-3z" fill="#ddd"/></svg>

<svg
	width="64"
	height="40"
	viewBox="0 0 64 40"
	fill="none"
	xmlns="http://www.w3.org/2000/svg"
>
	<path
		d="M0 4C0 1.79086 1.79086 0 4 0H60C62.2091 0 64 1.79086 64 4V36C64 38.2091 62.2091 40 60 40H4C1.79086 40 0 38.2091 0 36V4Z"
		fill="white"
	/>
	<path
		d="M12 11C12 8.79086 13.7909 7 16 7H48.8571C51.0663 7 52.8571 8.79086 52.8571 11V29C52.8571 31.2091 51.0663 33 48.8571 33H16C13.7909 33 12 31.2091 12 29V11Z"
		fill="white"
	/>
	<path
		fill-rule="evenodd"
		clip-rule="evenodd"
		d="M48.8571 9H16C14.8954 9 14 9.89543 14 11V29C14 30.1046 14.8954 31 16 31H48.8571C49.9617 31 50.8571 30.1046 50.8571 29V11C50.8571 9.89543 49.9617 9 48.8571 9ZM16 7C13.7909 7 12 8.79086 12 11V29C12 31.2091 13.7909 33 16 33H48.8571C51.0663 33 52.8571 31.2091 52.8571 29V11C52.8571 8.79086 51.0663 7 48.8571 7H16Z"
		fill="#0F3365"
	/>
	<path
		d="M32.4285 7H48.857C51.0662 7 52.857 8.79086 52.857 11V29C52.857 31.2091 51.0662 33 48.857 33H32.4285V7Z"
		fill="#0F3365"
	/>
	<path
		fill-rule="evenodd"
		clip-rule="evenodd"
		d="M35.2142 28.1058H39.4694V22.1896H39.5169C40.3211 23.4859 41.9291 23.966 43.4183 23.966C47.083 23.966 49.0452 21.2899 49.0452 18.0698C49.0452 15.4361 47.1788 12.5715 43.7737 12.5715C41.8349 12.5715 40.0373 13.2615 39.1865 14.7878H39.139V12.8223H35.2142V28.1058ZM44.648 18.1539C44.648 19.8896 43.6784 21.0808 42.0716 21.0808C40.6524 21.0808 39.4691 19.8896 39.4691 18.2999C39.4691 16.6696 40.5103 15.4567 42.0716 15.4567C43.7259 15.4567 44.648 16.7105 44.648 18.1539Z"
		fill="#FFFFFE"
	/>
	<path
			fill-rule="evenodd"
			clip-rule="evenodd"
		d="M29.6351 12.8223H25.7804V14.7871H25.7341C24.8353 13.4496 23.369 12.5715 21.549 12.5715C17.7192 12.5715 15.9929 14.9962 15.9929 18.2372C15.9929 21.4584 18.0972 23.7145 21.4785 23.7145C23.1807 23.7145 24.5991 23.1307 25.615 21.8537H25.6629V22.4404C25.6629 24.573 24.3395 25.5971 21.8802 25.5971C20.1068 25.5971 19.0193 25.2629 17.7192 24.6984L17.5059 27.6676C18.4993 27.98 20.1781 28.3572 22.2111 28.3572C27.1762 28.3572 29.6351 26.9139 29.6351 22.4404V12.8223ZM20.3904 18.1742C20.3904 16.6902 21.218 15.4567 22.8022 15.4567C24.7169 15.4567 25.521 16.8146 25.521 18.0278C25.521 19.7012 24.3148 20.83 22.8022 20.83C21.5255 20.83 20.3904 19.8672 20.3904 18.1742Z"
		fill="#D8232A"
	/>
	<path
		d="M4 1H60V-1H4V1ZM63 4V36H65V4H63ZM60 39H4V41H60V39ZM1 36V4H-1V36H1ZM4 39C2.34315 39 1 37.6569 1 36H-1C-1 38.7614 1.23858 41 4 41V39ZM63 36C63 37.6569 61.6569 39 60 39V41C62.7614 41 65 38.7614 65 36H63ZM60 1C61.6569 1 63 2.34315 63 4H65C65 1.23858 62.7614 -1 60 -1V1ZM4 -1C1.23858 -1 -1 1.23858 -1 4H1C1 2.34315 2.34315 1 4 1V-1Z"
		fill="#DDDDDD"
	/>
</svg>
